images/advanced-first.svg

<svg width="88" height="88" viewBox="0 0 88 88" fill="none" xmlns="http://www.w3.org/2000/svg">
<circle cx="44" cy="44" r="44" fill="#3A3054"/>
<path fill-rule="evenodd" clip-rule="evenodd" d="M32.3755 41.7637C31.7429 42.3737 30.8835 42.75 29.9375 42.75C27.999 42.75 26.4219 41.1729 26.4219 39.2344C26.4219 37.2959 27.999 35.7188 29.9375 35.7188C31.876 35.7188 33.4531 37.2959 33.4531 39.2344C33.4531 39.3815 33.4431 39.5258 33.4254 39.668L36.8745 41.3926C37.5071 40.7825 38.3665 40.4062 39.3125 40.4062C39.8545 40.4062 40.3684 40.5298 40.8274 40.7499L45.5155 36.0618C45.2955 35.6028 45.1719 35.0889 45.1719 34.5469C45.1719 32.6084 46.749 31.0312 48.6875 31.0312C49.4074 31.0312 50.077 31.2488 50.6348 31.6215L54.7077 28.567C54.6033 28.2349 54.5469 27.8818 54.5469 27.5156C54.5469 25.5771 56.124 24 58.0625 24C60.001 24 61.5781 25.5771 61.5781 27.5156C61.5781 29.4541 60.001 31.0312 58.0625 31.0312C57.3426 31.0312 56.673 30.8137 56.1152 30.441L52.0423 33.4955C52.1467 33.8276 52.2031 34.1807 52.2031 34.5469C52.2031 36.4854 50.626 38.0625 48.6875 38.0625C48.1455 38.0625 47.6316 37.9389 47.1726 37.7189L42.4845 42.407C42.7045 42.866 42.8281 43.3799 42.8281 43.9219C42.8281 45.8604 41.251 47.4375 39.3125 47.4375C37.374 47.4375 35.7969 45.8604 35.7969 43.9219C35.7969 43.7748 35.8069 43.6304 35.8246 43.4882L32.3755 41.7637ZM59.2344 27.5156C59.2344 26.8696 58.7086 26.3438 58.0625 26.3438C57.4164 26.3438 56.8906 26.8696 56.8906 27.5156C56.8906 28.1617 57.4164 28.6875 58.0625 28.6875C58.7086 28.6875 59.2344 28.1617 59.2344 27.5156ZM48.6875 33.375C49.3336 33.375 49.8594 33.9008 49.8594 34.5469C49.8594 35.1929 49.3336 35.7188 48.6875 35.7188C48.0414 35.7188 47.5156 35.1929 47.5156 34.5469C47.5156 33.9008 48.0414 33.375 48.6875 33.375ZM40.4844 43.9219C40.4844 43.2758 39.9586 42.75 39.3125 42.75C38.6664 42.75 38.1406 43.2758 38.1406 43.9219C38.1406 44.5679 38.6664 45.0938 39.3125 45.0938C39.9586 45.0938 40.4844 44.5679 40.4844 43.9219ZM29.9375 38.0625C30.5836 38.0625 31.1094 38.5883 31.1094 39.2344C31.1094 39.8804 30.5836 40.4062 29.9375 40.4062C29.2914 40.4062 28.7656 39.8804 28.7656 39.2344C28.7656 38.5883 29.2914 38.0625 29.9375 38.0625ZM61.5781 61.6562H62.8281C63.4754 61.6562 64 62.1808 64 62.8281C64 63.4754 63.4754 64 62.8281 64H25.1719C24.5246 64 24 63.4754 24 62.8281C24 62.1808 24.5246 61.6562 25.1719 61.6562H26.4219V48.6094C26.4219 47.9621 26.9465 47.4375 27.5938 47.4375H32.2812C32.9285 47.4375 33.4531 47.9621 33.4531 48.6094V61.6562H35.7969V53.2969C35.7969 52.6496 36.3215 52.125 36.9688 52.125H41.6562C42.3035 52.125 42.8281 52.6496 42.8281 53.2969V61.6562H45.1719V43.9219C45.1719 43.2746 45.6965 42.75 46.3438 42.75H51.0312C51.6785 42.75 52.2031 43.2746 52.2031 43.9219V61.6562H54.5469V36.8906C54.5469 36.2433 55.0715 35.7188 55.7188 35.7188H60.4062C61.0535 35.7188 61.5781 36.2433 61.5781 36.8906V61.6562ZM59.2344 61.6562V38.0625H56.8906V61.6562H59.2344ZM47.5156 45.0938H49.8594V61.6562H47.5156V45.0938ZM40.4844 61.6562V54.4688H38.1406V61.6562H40.4844ZM28.7656 49.7812H31.1094V61.6562H28.7656V49.7812Z" fill="#2BD0D0"/>
</svg>

<svg width="88" height="88" fill="none" xmlns="http://www.w3.org/2000/svg"><circle cx="44" cy="44" r="44" fill="#3A3054"/><path fill-rule="evenodd" clip-rule="evenodd" d="M32.376 41.764a3.503 3.503 0 0 1-2.438.986 3.52 3.52 0 0 1-3.516-3.516 3.52 3.52 0 0 1 3.515-3.515 3.52 3.52 0 0 1 3.488 3.949l3.45 1.725a3.502 3.502 0 0 1 3.952-.643l4.689-4.688a3.496 3.496 0 0 1-.344-1.515 3.52 3.52 0 0 1 3.516-3.516c.72 0 1.389.218 1.947.59l4.073-3.054A3.52 3.52 0 0 1 58.063 24a3.52 3.52 0 0 1 3.515 3.516 3.52 3.52 0 0 1-3.516 3.515c-.72 0-1.389-.217-1.947-.59l-4.073 3.055a3.52 3.52 0 0 1-3.355 4.567 3.496 3.496 0 0 1-1.514-.344l-4.689 4.688c.22.459.344.973.344 1.515a3.52 3.52 0 0 1-3.516 3.516 3.52 3.52 0 0 1-3.487-3.95l-3.45-1.724Zm26.858-14.248c0-.646-.525-1.172-1.172-1.172-.646 0-1.171.526-1.171 1.172 0 .646.525 1.172 1.172 1.172.646 0 1.171-.526 1.171-1.172Zm-10.547 5.859c.647 0 1.172.526 1.172 1.172 0 .646-.525 1.172-1.172 1.172a1.173 1.173 0 0 1-1.171-1.172c0-.646.525-1.172 1.172-1.172Zm-8.203 10.547c0-.646-.525-1.172-1.172-1.172-.646 0-1.171.526-1.171 1.172 0 .646.525 1.172 1.172 1.172.646 0 1.171-.526 1.171-1.172Zm-10.547-5.86c.647 0 1.172.526 1.172 1.172 0 .646-.525 1.172-1.172 1.172a1.173 1.173 0 0 1-1.171-1.172c0-.646.525-1.172 1.172-1.172Zm31.641 23.594h1.25a1.172 1.172 0 1 1 0 2.344H25.172a1.172 1.172 0 1 1 0-2.344h1.25V48.61c0-.647.524-1.172 1.172-1.172h4.687c.648 0 1.172.525 1.172 1.172v13.047h2.344v-8.36c0-.646.525-1.171 1.172-1.171h4.687c.648 0 1.172.525 1.172 1.172v8.36h2.344V43.921c0-.647.525-1.172 1.172-1.172h4.687c.648 0 1.172.525 1.172 1.172v17.734h2.344V36.891c0-.648.525-1.172 1.172-1.172h4.687c.648 0 1.172.524 1.172 1.172v24.765Zm-2.344 0V38.063h-2.343v23.593h2.343ZM47.516 45.094h2.343v16.562h-2.343V45.094Zm-7.032 16.562V54.47h-2.343v7.187h2.343ZM28.766 49.781h2.343v11.875h-2.343V49.781Z" fill="#2BD0D0"/></svg>
